symbols/web/airline_seat_recline_extra/materialsymbolssharp/airline_seat_recline_extra_wght300grad200_40px.svg

<svg xmlns="http://www.w3.org/2000/svg" height="40" width="40"><path d="M13 9.75q-1.292 0-2.208-.917-.917-.916-.917-2.208 0-1.375.917-2.271.916-.896 2.208-.896 1.333 0 2.25.896t.917 2.271q0 1.292-.917 2.208-.917.917-2.25.917ZM9.083 33.083 4.708 11.208h2.959l3.625 19.084h11.875v2.791Zm23.667 3.834L27.917 28.5H12.833l-2.458-12.25q-.375-1.958.979-3.437 1.354-1.48 3.313-1.48 1.416 0 2.521.896 1.104.896 1.437 2.313l1.917 9.416h8l6.75 11.584Z"/></svg>

<svg xmlns="http://www.w3.org/2000/svg" height="40" width="40"><path d="M13 9.75Q11.708 9.75 10.792 8.833Q9.875 7.917 9.875 6.625Q9.875 5.25 10.792 4.354Q11.708 3.458 13 3.458Q14.333 3.458 15.25 4.354Q16.167 5.25 16.167 6.625Q16.167 7.917 15.25 8.833Q14.333 9.75 13 9.75ZM9.083 33.083 4.708 11.208H7.667L11.292 30.292H23.167V33.083ZM32.75 36.917 27.917 28.5H12.833L10.375 16.25Q10 14.292 11.354 12.813Q12.708 11.333 14.667 11.333Q16.083 11.333 17.188 12.229Q18.292 13.125 18.625 14.542L20.542 23.958H28.542L35.292 35.542Z"/></svg>
